X:1
T:Title
L:1/8
M:2/4
K:D
V:1 treble nm="Grand Piano"
V:1
 z2 z[Q:1/4=100] A, | FF GA | A E2 E | DD EF/G/ | F C2 C | B,C DE | D4- | D3 D | BB BB | A F2 F | %10
 EF GA/B/ | A F2 D | BB cd | A F2 F | EF GA/B/ | A2 FF | EF GC | D4- | D3 D | dd dd | c F2 F | %21
 EF GA/B/ | A F2 D | dd dd/e/ | c A2 F | EF GC | E2 D2- | D4 |] %28

